X:1
T:James Gibb editions
T:In te Domine speravi - Saladino
T:#
%%score { 1 | 2 } 3
L:1/8
Q:1/4=84
M:4/4
K:A
V:1 treble-8 nm="Tenor I" snm="T"
V:2 treble-8 
V:3 bass nm="Bass" snm="B"
V:1
"^moderato""^In te Domine speravi""^Michele Saladino\n (1835-1912)" z8 | z8 | z8 | z4!mp! c4 | %4
w: |||In|
 B4 d4 | c2 e4 d2 |"^," c2 (fe) (^d3 e) |[M:4/4][K:treble-8] e6 z2 | A4 e4 | f3 e"^," e2 d2 | %10
w: te, in|te Do- mi-|ne spe\- * ra\- *|vi,|in te|Do- mi- ne spe-|
 (c2 dc B2 e2) | A2 z2 z2 A2 | (A2 G2) z2 B2 | B A2 G"^," F2 f2 | (ed c4 B2) | %15
w: ra\- * * * *|vi, in|te, * in|te Do- mi- ne spe-|ra\- * * *|
"^," B2"^dolce" B4 (AB) | (c6 BA) | (GEFG) A2 (E2- | EDCD) (E A2 =G) | (F3 E) (E2 c2) | %20
w: vi, non con\- *|fun\- * *|dar * * * in ae\-|* * * * ter\- * *|num: * non *|
 B4 A2 (d2- | d2 ^E2) F2 (cd) | =e4 d4- | d (cde) f4- | f (Bef e3) d | c4 (d2 c2) | c4 Be (fg | %27
w: con- fun- dar|* * in ae\- *|ter- num,|* in * * te|* Do\- * * * mi-|ne spe\- *|ra- vi, spe- ra\- *|
 a3 g f3 e | dedc B4) | A2"^dolce" (e2 c2) z2 | z2 f2 d4 | c3 d/c/ B2 ed | (c2 A4 G2) | %33
w: ||vi, non, *|non con-|fun\- * * dar in ae-|ter\- * *|
 A2 z2 z2 (A2 | d4) z2 B2 | (e4- ed) (cB) | A2 c2 B4 |"^," A2[Q:1/4=82] c4[Q:1/4=81] c2 | %38
w: num, non,|* con-|fun\- * * dar *|in ae ter-|num, in ae-|
[Q:1/4=80] (c2[Q:1/4=78] A6) |[Q:1/4=75] A8- |[Q:1/4=71] A8 |[Q:1/4=70] !fermata!A8 |] %42
w: ter\- *|num.|||
V:2
 z8 | z8 | z8 | z4 z2!mp! A2- | A2 G2 z2 B2- | B2 (AG) F2 G2 |"^," A2 A4 (BA) | %7
w: |||In|* te, in|* te * Do- mi-|ne spe- ra\- *|
[M:4/4][K:treble-8] G6 z2 | z2 A2 (B2 G2) | (FG) A2 A4 | (AGFE) D4 |"^," C2 E6 | D4 F4 | E4 F3 G | %14
w: vi,|in te *|Do\- * mi- ne|spe\- * * * ra-|vi, in|te, in|te Do- mi-|
 A3 G F4 | G2 z2 z4 | z8 | z8 | z4 A4 | D4 (C3 D) | (D2 E2) F2 (^EF) | (G2 C2 D2) A2 | %22
w: ne spe- ra-|vi,|||non|con- fun\- *|dar * in ae\- *|ter\- * * num:|
 z E (AG) (FE) (FG) | (A4- AB) (cA) | (G4- GA B2- | B2) (AB) A3 G | (FGAF) B4 | (EDE^E FG A2- | %28
w: in ae\- * ter\- * num *|in * * te *|Do\- * * *|* mi\- * me spe-|ra\- * * * vi,|spe\- * * * * * *|
 A2) (A3 GFG) | A2 z2 z2 A2 | F2 A4 G2- | (GA) (F3 G E2- | E2) (E2 B4) | E2 z2 z4 | z2 (A2 F4) | %35
w: * ra\- * * *|vi, con-|fun- dar in|* * ae\- * *|* ter\- *|num,|non, *|
 z2 E2 F2 G2 | A2 (E3 F) (ED) |"^," C2 A4 A2 | (G2 F6 | E2 F2 E2 D2) | C8- | !fermata!C8 |] %42
w: con- fun- dar|in ae\- * ter\- *|num, in ae-|ter\- *||num.||
V:3
!p! A,,4 E,4 | F,3 E,"^," E,2 D,2 | (C,2 D,C, B,,2 E,2) | A,,4 z4 | z8 | z8 | z!mp! (A,2 G,) F,4 | %7
w: In te|Do- mi- ne spe-|ra\- * * * *|vi,|||spe\- * ra-|
[M:4/4] E,6 z2 | z2 F,2 G,2 E,2- | E,2 D,2 C,3 B,, | (A,,2 A,4 G,2) | A,2 z2 C,4 | B,,4 D,4 | %13
w: vi,|in te Do\-|* mi- ne spe-|ra\- * *|vi, in|te, in|
 C,2 E,4 D,2 |"^," C,2 (F,E,) (^D,3 E,) | E,2 z2 G,4- | G,2 (F,E,) ^D,4 | E,3 (=D,C,B,,) (C,A,,) | %18
w: te Do- mi-|ne spe\- * ra\- *|vi, non|* con\- * fun-|dar in * * ae\- *|
 F,4 C,2 C2- | C2 B,4 A,2- | A,2 G,2 F,2 (G,A,) | (B,2 CB, A,2 F,2 | C,6 B,,2 | !>!A,,8 | %24
w: ter- num: non|* con- fun\-|* dar in ae\- *|ter\- * * * *|* num,|in|
"^cresc." !>!E,8 | !>!F,6 E,2 | E,4 D,4 | C,4 D,2 C,2 | B,,4 E,4) | A,,2 z2 z4 | %30
w: te|Do- mi-|ne spe-|ra\- * *||vi,|
 z2 D,2 (B,,2 E,2) | A,,4 G,,4 | (A,,B,,) (C,A,,) (E,,2 E,D, | C,2 E,2) C,2 z2 | z2 F,2 D,4 | %35
w: non con\- *|fun- dar|in * ae\- * ter\- * *|* * num,|con- fun-|
 (C,3 D,/C,/) B,,2 (E,D,) | (C,2 A,,4 G,,2) | A,,2 z2 F,3 E, | (E,4 D,3 C, | C,2 D,2 C,2 B,,2) | %40
w: dar * * in ae\- *|ter\- * *|num, in ae-|ter\- * *||
 A,,8- | !fermata!A,,8 |] %42
w: num.||

